X:494
T:Unst Bridal March
B:Haand Me Doon da Fiddle
Z:Nigel Gatherer
M:3/4
L:1/8
K:A
a2 | A2  A2 B2 | c4     e2 | fg  a2 c2 | BA B2 a/g/a/f/ |
     e2  A2 AB | c2  e2 Bd | c2  A2 A2 | A4            :|
a2 | f2  e2 a2 | f2  e2 a2 | f2  e2 a2 | f4    e2       |
     f>g a2 e2 | f>g a2 e2 | f>g a2 a2 | a4    c2       |
     d2  d2 cB | c2  e2 e2 | fg  a2 c2 | BA B2 a/g/a/f/ |
     e2  A2 AB | c2  e2 Bd | c2  A2 A2 | A4            |]
<end>
<start>
